svgs/thin/paragraph-left.svg

<svg xmlns="http://www.w3.org/2000/svg" viewBox="0 0 384 512"><!--! Font Awesome Pro 6.3.0 by @fontawesome - https://fontawesome.com License - https://fontawesome.com/license (Commercial License) Copyright 2023 Fonticons, Inc. --><path d="M376 408H31.13l93.8-73.7c3.484-2.734 4.078-7.766 1.359-11.23c-2.75-3.516-7.812-4.047-11.23-1.359l-112 88C1.125 411.2 0 413.5 0 416s1.125 4.781 3.062 6.297l112 88C116.5 511.4 118.3 512 120 512c2.359 0 4.719-1.047 6.297-3.062c2.719-3.469 2.125-8.5-1.359-11.23L31.13 424H376c4.422 0 8-3.579 8-8.001S380.4 408 376 408zM143.1 224H184v88C184 316.4 187.5 320 191.1 320S200 316.4 200 312V16h80v296c0 4.422 3.535 8 7.957 8S296 316.4 296 312V16h48C348.4 16 352 12.42 352 8S348.4 0 344 0H143.1C82.21 0 32 50.25 32 112S82.24 224 143.1 224zM144 16h40v192H144c-52.94 0-96-43.06-96-96S91.06 16 144 16z"/></svg>

<svg xmlns="http://www.w3.org/2000/svg" viewBox="0 0 384 512"><!-- Font Awesome Pro 6.0.0-alpha2 by @fontawesome - https://fontawesome.com License - https://fontawesome.com/license (Commercial License) --><path d="M376 408H31.135L124.937 334.297C128.422 331.562 129.016 326.531 126.297 323.062C123.547 319.547 118.484 319.016 115.062 321.703L3.062 409.703C1.125 411.219 0 413.547 0 416S1.125 420.781 3.062 422.297L115.062 510.297C116.516 511.438 118.266 512 120 512C122.359 512 124.719 510.953 126.297 508.938C129.016 505.469 128.422 500.438 124.937 497.703L31.135 424H376C380.422 424 384 420.422 384 416S380.422 408 376 408ZM144 224H184V312C184 316.422 187.578 320 192 320S200 316.422 200 312V16H280V312C280 316.422 283.578 320 288 320S296 316.422 296 312V16H344C348.422 16 352 12.422 352 8S348.422 0 344 0H144C82.25 0 32 50.25 32 112S82.25 224 144 224ZM144 16H184V208H144C91.062 208 48 164.938 48 112S91.062 16 144 16Z"/></svg>
